T: Health To The Ladies
M: 6/8
L: 1/8
K: Amaj
ecA BAF | AFE EFA | B/c/dc B^AB | cB^A B2 =a/f/ |ecA BAF | AFE EFA | B/c/dc B^AB | cAG A2 :||cee d2 f | cee ecA | Ac/d/e f/g/af | ecA B^AB |c2 e dff | c2 e ecA | B/c/dc B^AB | cAG A2 :||
